svgs/light/folders.svg

<svg xmlns="http://www.w3.org/2000/svg" viewBox="0 0 640 512"><!-- Font Awesome Pro 6.0.0-alpha2 by @fontawesome - https://fontawesome.com License - https://fontawesome.com/license (Commercial License) --><path d="M576 96H400L354.746 50.746C342.742 38.742 326.465 32 309.49 32H192C156.654 32 128 60.654 128 96V352C128 387.346 156.654 416 192 416H576C611.346 416 640 387.346 640 352V160C640 124.654 611.346 96 576 96ZM608 352C608 369.645 593.645 384 576 384H192C174.355 384 160 369.645 160 352V96C160 78.355 174.355 64 192 64H309.49C318.039 64 326.074 67.328 332.117 73.375L377.373 118.627L386.746 128H576C593.645 128 608 142.355 608 160V352ZM432 480H128C92.654 480 64 451.346 64 416V176C64 167.164 56.836 160 48 160S32 167.164 32 176V416C32 469.02 74.98 512 128 512H432C440.836 512 448 504.836 448 496S440.836 480 432 480Z"/></svg>

<svg xmlns="http://www.w3.org/2000/svg" viewBox="0 0 640 512"><!--! Font Awesome Pro 6.3.0 by @fontawesome - https://fontawesome.com License - https://fontawesome.com/license (Commercial License) Copyright 2023 Fonticons, Inc. --><path d="M576 96h-175.1l-45.25-45.25C342.7 38.74 326.5 32 309.5 32H192C156.7 32 128 60.65 128 96v256c0 35.35 28.65 64 64 64h384c35.35 0 64-28.65 64-64V160C640 124.7 611.3 96 576 96zM608 352c0 17.64-14.36 32-32 32H192c-17.64 0-32-14.36-32-32V96c0-17.64 14.36-32 32-32h117.5c8.549 0 16.58 3.328 22.63 9.375L386.7 128H576c17.64 0 32 14.36 32 32V352zM432 480H128c-35.35 0-64-28.65-64-64V176C64 167.2 56.84 160 48 160S32 167.2 32 176L32 416c0 53.02 42.98 96 96 96h304c8.836 0 16-7.164 16-16S440.8 480 432 480z"/></svg>
